;FLAVOR:Marlin
;TIME:6696
;Filament used: 3.68731m
;Layer height: 0.1
;Generated with Cura_SteamEngine master
M140 S60
M105
M190 S60
M104 S200
M105
M109 S200
M82 ;absolute extrusion mode
G21 ;metric values
G90 ;absolute positioning
M82 ;set extruder to absolute mode
M107 ;start with the fan off
G28 X0 Y0 ;move X/Y to min endstops
G28 Z0 ;move Z to min endstops
G1 Z15.0 F9000 ;move the platform down 15mm
G92 E0 ;zero the extruded length
G1 F200 E3 ;extrude 3mm of feed stock
G92 E0 ;zero the extruded length again
G1 F9000
;Put printing message on LCD screen
M117 Printing...
G92 E0
G1 F1500 E-6.5
;LAYER_COUNT:129
;LAYER:0
M107
;MESH:laser_sledge.stl
G0 F3600 X53.081 Y45.436 Z0.3
;TYPE:WALL-INNER
G1 F1500 E0
G1 F1800 X53.081 Y60.636 E0.75833
G1 X57.281 Y60.636 E0.96787
G1 X57.281 Y54.82 E1.25803
G1 X57.281 Y54.512 E1.2734
G1 X57.281 Y53.8 E1.30892
G1 X57.281 Y53.036 E1.34704
G1 X57.281 Y52.298 E1.38385
G1 X57.281 Y52.067 E1.39538
G1 X57.281 Y51.557 E1.42082
G1 X57.281 Y51.255 E1.43589
G1 X57.281 Y45.436 E1.7262
G1 X53.081 Y45.436 E1.93574
G0 F3600 X53.011 Y45.366
G0 X57.309 Y45.408
G0 X59.793 Y46.52
G0 X59.871 Y46.581
G1 F1800 X59.689 Y47.176 E1.96678
G1 X59.36 Y47.323 E1.98476
G1 X58.868 Y48.03 E2.02773
G1 X58.738 Y48.571 E2.05549
G1 X58.596 Y48.768 E2.06761
G1 X58.432 Y49.211 E2.09117
G1 X58.18 Y49.482 E2.10964
G1 X57.952 Y50.042 E2.1398
G1 X57.809 Y50.545 E2.16589
G1 X57.68 Y51.26 E2.20214
G1 X57.627 Y51.557 E2.21618
G1 X57.581 Y52.067 E2.23682
G1 X57.569 Y52.298 E2.2453
G1 X57.433 Y53.036 E2.2661
G1 X57.572 Y53.8 E2.28775
G1 X57.626 Y54.512 E2.31609
G1 X57.68 Y54.815 E2.33039
G1 X57.808 Y55.526 E2.36643
G1 X57.952 Y56.03 E2.39258
G1 X58.18 Y56.592 E2.42284
G1 X58.432 Y56.861 E2.44123
G1 X58.596 Y57.304 E2.46479
G1 X58.737 Y57.5 E2.47684
G1 X58.868 Y58.042 E2.50466
G1 X59.36 Y58.748 E2.54759
G1 X59.69 Y58.897 E2.56566
G1 X59.874 Y59.491 E2.59668
G1 X60.432 Y59.827 E2.62918
G1 X60.774 Y60.139 E2.65227
G1 X61.616 Y60.761 E2.7045
G1 X62.062 Y61.02 E2.73023
G1 X62.503 Y61.298 E2.75624
G1 X63.474 Y61.716 E2.80898
G1 X64.01 Y61.882 E2.83697
G1 X64.493 Y62.011 E2.86191
G1 X64.973 Y62.104 E2.88631
G1 X65.53 Y62.248 E2.91501
G1 X66.207 Y62.302 E2.94889
G1 X66.825 Y62.266 E2.97978
G1 X67.317 Y62.25 E3.00434
G1 X67.821 Y62.209 E3.02956
G1 X68.375 Y62.131 E3.05747
G1 X68.852 Y62.022 E3.08189
G1 X69.395 Y61.884 E3.10984
G1 X70.384 Y61.52 E3.16241
G1 X70.851 Y61.264 E3.18898
G1 X71.3 Y61.036 E3.21411
G1 X71.733 Y60.753 E3.23991
G1 X72.175 Y60.488 E3.26563
G1 X72.987 Y59.812 E3.31834
G1 X73.378 Y59.411 E3.34628
G1 X73.712 Y59.05 E3.37082
G1 X74.053 Y58.611 E3.39855
G1 X74.343 Y58.196 E3.42381
G1 X74.601 Y57.776 E3.4484
G1 X74.944 Y57.26 E3.47931
G1 X75.234 Y56.645 E3.51323
G1 X75.389 Y56.093 E3.54184
G1 X75.547 Y55.628 E3.56634
G1 X75.678 Y55.147 E3.59121
G1 X75.802 Y54.591 E3.61963
G1 X75.905 Y53.555 E3.67157
G1 X75.905 Y53.066 E3.69597
G1 X75.925 Y52.523 E3.72308
G1 X75.801 Y51.473 E3.77583
G1 X75.677 Y50.926 E3.80381
G1 X75.548 Y50.443 E3.82875
G1 X75.391 Y49.992 E3.85258
G1 X75.235 Y49.428 E3.88177
G1 X74.943 Y48.813 E3.91574
G1 X74.594 Y48.287 E3.94723
G1 X74.342 Y47.877 E3.97124
G1 X74.054 Y47.461 E3.99648
G1 X73.71 Y47.023 E4.02427
G1 X73.379 Y46.664 E4.04863
G1 X72.986 Y46.262 E4.07668
G1 X72.176 Y45.588 E4.12925
G1 X71.727 Y45.314 E4.15549
G1 X71.299 Y45.035 E4.18098
G1 X70.847 Y44.806 E4.20626
G1 X70.385 Y44.552 E4.23256
G1 X69.395 Y44.188 E4.28519
G1 X68.853 Y44.051 E4.31308
G1 X68.376 Y43.94 E4.33751
G1 X67.822 Y43.864 E4.36541
G1 X67.316 Y43.821 E4.39074
G1 X66.826 Y43.808 E4.4152
G1 X66.208 Y43.768 E4.4461
G1 X65.53 Y43.825 E4.48004
G1 X64.955 Y43.971 E4.50964
G1 X64.494 Y44.062 E4.53308
G1 X64.011 Y44.19 E4.55801
G1 X63.466 Y44.36 E4.58649
G1 X62.986 Y44.583 E4.6129
G1 X62.522 Y44.788 E4.6382
G1 X62.093 Y45.036 E4.66293
G1 X61.616 Y45.29 E4.68989
G1 X61.154 Y45.632 E4.71857
G1 X60.764 Y45.939 E4.74333
G1 X60.435 Y46.242 E4.76564
G1 X59.871 Y46.581 E4.79847
G0 F3600 X59.793 Y46.52
G0 X61.595 Y45.257
G0 X62.97 Y44.547
G0 X64 Y44.152
G0 X65.524 Y43.786
G0 X66.208 Y43.728
G0 X67.969 Y43.867
G0 X90.596 Y47.326
G0 X90.666 Y47.396
G1 F1800 X90.485 Y48.025 E4.83113
G1 X90.432 Y48.151 E4.83795
G1 X90.206 Y48.298 E4.8514
G1 X90.071 Y48.977 E4.88593
G1 X90.071 Y55.498 E5.21127
G1 X90.046 Y56.113 E5.24198
G1 X90.199 Y56.487 E5.26214
G1 X90.2 Y56.595 E5.26752
G1 X90.048 Y56.979 E5.28813
G1 X90.207 Y57.778 E5.32877
G1 X90.434 Y57.922 E5.34218
G1 X90.48 Y58.034 E5.34822
G1 X90.668 Y58.678 E5.3817
G1 X91.297 Y58.859 E5.41435
G1 X91.423 Y58.911 E5.42115
G1 X91.57 Y59.139 E5.43468
G1 X92.236 Y59.27 E5.46855
G1 X92.604 Y59.287 E5.48693
G1 X93.12 Y59.286 E5.51267
G1 X93.658 Y59.316 E5.53955
G1 X94.376 Y59.315 E5.57537
G1 X94.771 Y59.149 E5.59675
G1 X94.872 Y59.146 E5.60179
G1 X95.251 Y59.296 E5.62213
G1 X96.05 Y59.137 E5.66277
G1 X96.194 Y58.91 E5.67618
G1 X96.306 Y58.864 E5.68222
G1 X96.95 Y58.676 E5.71569
G1 X97.133 Y58.042 E5.74861
G1 X97.183 Y57.922 E5.7551
G1 X97.41 Y57.775 E5.76859
G1 X97.545 Y57.095 E5.80318
G1 X97.546 Y50.309 E6.14174
G1 X97.553 Y49.835 E6.16539
G1 X97.546 Y48.973 E6.20839
G1 X97.408 Y48.297 E6.24281
G1 X97.183 Y48.152 E6.25617
G1 X97.135 Y48.034 E6.26252
G1 X96.948 Y47.394 E6.29579
G1 X96.315 Y47.212 E6.32865
G1 X96.194 Y47.161 E6.3352
G1 X96.047 Y46.934 E6.34869
G1 X95.368 Y46.799 E6.38323
G1 X94.476 Y46.797 E6.42773
G1 X93.751 Y46.822 E6.46392
G1 X92.942 Y46.823 E6.50429
G1 X92.26 Y46.795 E6.53834
G1 X91.567 Y46.936 E6.57362
G1 X91.423 Y47.162 E6.58699
G1 X91.311 Y47.208 E6.59303
G1 X90.666 Y47.396 E6.62655
G0 F3600 X90.596 Y47.326
G0 X90.173 Y48.276
G0 X90.032 Y48.974
G0 X90.009 Y56.976
G0 X90.175 Y57.8
G0 X90.593 Y58.615
G0 X99.011 Y67.366
G0 X99.081 Y67.436
G1 F1800 X40.281 Y67.436 E9.56009
G1 X40.281 Y38.636 E10.99693
G1 X99.081 Y38.636 E13.93048
G1 X99.081 Y67.436 E15.36731
G0 F3600 X99.481 Y67.836
;TYPE:WALL-OUTER
G1 F1800 X39.881 Y67.836 E18.34077
G1 X39.881 Y38.236 E19.81752
G1 X99.481 Y38.236 E22.79098
G1 X99.481 Y67.836 E24.26773
G0 F3600 X99.281 Y67.836
G0 X99.011 Y67.366
G0 X90.64 Y58.706
G0 X90.175 Y57.8
G0 X90.009 Y56.976
G0 X90.032 Y48.974
G0 X90.145 Y48.409
G0 X90.51 Y47.58
G0 X90.989 Y47.718
G1 F1800 X90.861 Y48.163 E24.29083
G1 X90.755 Y48.419 E24.30465
G1 X90.565 Y48.542 E24.31594
G1 X90.471 Y49.016 E24.34005
G1 X90.471 Y55.515 E24.66429
G1 X90.449 Y56.042 E24.6906
G1 X90.598 Y56.406 E24.71023
G1 X90.601 Y56.67 E24.7234
G1 X90.463 Y57.017 E24.74203
G1 X90.566 Y57.532 E24.76823
G1 X90.756 Y57.653 E24.77947
G1 X90.859 Y57.905 E24.79305
G1 X90.99 Y58.355 E24.81643
G1 X91.435 Y58.483 E24.83953
G1 X91.691 Y58.589 E24.85336
G1 X91.814 Y58.779 E24.86465
G1 X92.284 Y58.872 E24.88855
G1 X92.613 Y58.887 E24.90498
G1 X93.124 Y58.886 E24.93048
G1 X93.669 Y58.916 E24.95771
G1 X94.295 Y58.915 E24.98894
G1 X94.685 Y58.751 E25.01005
G1 X94.944 Y58.744 E25.02297
G1 X95.289 Y58.881 E25.04149
G1 X95.804 Y58.778 E25.0677
G1 X95.925 Y58.588 E25.07893
G1 X96.177 Y58.485 E25.09252
G1 X96.627 Y58.354 E25.1159
G1 X96.755 Y57.91 E25.13895
G1 X96.862 Y57.653 E25.15284
G1 X97.051 Y57.531 E25.16406
G1 X97.145 Y57.056 E25.18822
G1 X97.146 Y50.303 E25.52513
G1 X97.153 Y49.834 E25.54853
G1 X97.146 Y49.015 E25.58939
G1 X97.05 Y48.542 E25.61347
G1 X96.861 Y48.42 E25.62469
G1 X96.757 Y48.167 E25.63834
G1 X96.626 Y47.717 E25.66172
G1 X96.181 Y47.589 E25.68483
G1 X95.925 Y47.482 E25.69867
G1 X95.803 Y47.293 E25.70989
G1 X95.328 Y47.199 E25.73405
G1 X94.482 Y47.197 E25.77626
G1 X93.765 Y47.222 E25.81205
G1 X92.926 Y47.223 E25.85391
G1 X92.292 Y47.197 E25.88556
G1 X91.813 Y47.294 E25.90995
G1 X91.692 Y47.484 E25.92118
G1 X91.439 Y47.587 E25.93481
G1 X90.989 Y47.718 E25.95819
G0 F3600 X90.934 Y47.91
G0 X90.454 Y47.772
G0 X67.826 Y43.825
G0 X66.208 Y43.728
G0 X65.524 Y43.786
G0 X63.452 Y44.323
G0 X62.074 Y45.002
G0 X61.595 Y45.257
G0 X60.174 Y46.31
G0 X59.732 Y46.698
G0 X60.209 Y46.845
G1 F1800 X60.028 Y47.437 E25.98908
G1 X60 Y47.475 E25.99143
G1 X59.625 Y47.643 E26.01193
G1 X59.239 Y48.197 E26.04562
G1 X59.109 Y48.741 E26.07353
G1 X58.952 Y48.958 E26.08689
G1 X58.779 Y49.426 E26.11178
G1 X58.523 Y49.701 E26.13053
G1 X58.331 Y50.173 E26.15595
G1 X58.199 Y50.635 E26.17992
G1 X58.024 Y51.611 E26.22939
G1 X57.98 Y52.095 E26.25363
G1 X57.968 Y52.337 E26.26572
G1 X57.84 Y53.036 E26.30118
G1 X57.969 Y53.747 E26.33723
G1 X58.023 Y54.461 E26.37295
G1 X58.198 Y55.435 E26.42232
G1 X58.331 Y55.899 E26.4464
G1 X58.523 Y56.373 E26.47192
G1 X58.779 Y56.647 E26.49063
G1 X58.952 Y57.114 E26.51547
G1 X59.108 Y57.331 E26.5288
G1 X59.239 Y57.875 E26.55672
G1 X59.625 Y58.429 E26.59041
G1 X60 Y58.598 E26.61093
G1 X60.027 Y58.634 E26.61317
G1 X60.211 Y59.227 E26.64415
G1 X60.671 Y59.504 E26.67094
G1 X61.028 Y59.83 E26.69506
G1 X61.836 Y60.426 E26.74515
G1 X62.263 Y60.674 E26.76979
G1 X62.69 Y60.943 E26.79496
G1 X63.613 Y61.34 E26.84509
G1 X64.121 Y61.498 E26.87163
G1 X64.583 Y61.621 E26.89548
G1 X65.052 Y61.712 E26.91932
G1 X65.596 Y61.852 E26.94734
G1 X66.211 Y61.901 E26.97812
G1 X66.813 Y61.866 E27.00821
G1 X67.294 Y61.851 E27.03222
G1 X67.777 Y61.811 E27.0564
G1 X68.302 Y61.737 E27.08285
G1 X68.758 Y61.633 E27.10618
G1 X69.276 Y61.501 E27.13285
G1 X70.218 Y61.155 E27.18292
G1 X70.659 Y60.913 E27.20801
G1 X71.099 Y60.689 E27.23265
G1 X71.514 Y60.418 E27.25737
G1 X71.943 Y60.161 E27.28232
G1 X72.715 Y59.518 E27.33245
G1 X73.088 Y59.135 E27.35912
G1 X73.407 Y58.791 E27.38253
G1 X73.731 Y58.374 E27.40887
G1 X74.008 Y57.977 E27.43302
G1 X74.26 Y57.567 E27.45703
G1 X74.595 Y57.063 E27.48723
G1 X74.858 Y56.505 E27.518
G1 X75.01 Y55.965 E27.54599
G1 X75.164 Y55.511 E27.56991
G1 X75.29 Y55.051 E27.5937
G1 X75.406 Y54.528 E27.62043
G1 X75.505 Y53.535 E27.67022
G1 X75.505 Y53.051 E27.69436
G1 X75.524 Y52.539 E27.71992
G1 X75.406 Y51.541 E27.77006
G1 X75.289 Y51.022 E27.7966
G1 X75.165 Y50.561 E27.82042
G1 X75.008 Y50.108 E27.84434
G1 X74.859 Y49.568 E27.87229
G1 X74.594 Y49.01 E27.90311
G1 X74.261 Y48.508 E27.93316
G1 X74.007 Y48.096 E27.95731
G1 X73.732 Y47.699 E27.9814
G1 X73.405 Y47.282 E28.00784
G1 X73.089 Y46.939 E28.03111
G1 X72.714 Y46.556 E28.05785
G1 X71.943 Y45.914 E28.1079
G1 X71.509 Y45.649 E28.13327
G1 X71.099 Y45.382 E28.15768
G1 X70.666 Y45.163 E28.18189
G1 X70.219 Y44.917 E28.20735
G1 X69.277 Y44.571 E28.25741
G1 X68.759 Y44.44 E28.28407
G1 X68.303 Y44.334 E28.30743
G1 X67.778 Y44.262 E28.33386
G1 X67.294 Y44.221 E28.3581
G1 X66.815 Y44.208 E28.382
G1 X66.212 Y44.169 E28.41215
G1 X65.597 Y44.221 E28.44294
G1 X65.054 Y44.359 E28.47089
G1 X64.584 Y44.452 E28.4948
G1 X64.122 Y44.574 E28.51864
G1 X63.611 Y44.734 E28.54535
G1 X63.155 Y44.946 E28.57044
G1 X62.703 Y45.145 E28.59508
G1 X62.281 Y45.389 E28.6194
G1 X61.83 Y45.629 E28.64489
G1 X61.397 Y45.95 E28.67178
G1 X61.024 Y46.244 E28.69547
G1 X60.675 Y46.565 E28.71913
G1 X60.209 Y46.845 E28.74625
G0 F3600 X60.151 Y47.036
G0 X59.673 Y46.889
G0 X57.309 Y45.408
G0 X53.481 Y45.336
G0 X53.481 Y45.836
G1 F1800 X53.481 Y60.236 E29.46467
G1 X56.881 Y60.236 E29.6343
G1 X56.881 Y45.836 E30.35272
G1 X53.481 Y45.836 E30.52234
G0 F3600 X53.481 Y46.036
G0 X52.981 Y46.036
G0 X52.691 Y45.046
;TYPE:SKIN
G1 F1800 X52.691 Y61.026 E31.31959
G1 X57.671 Y61.026 E31.56804
G1 X57.671 Y56.374 E31.80013
G1 X57.846 Y56.806 E31.82338
G1 X58.094 Y57.071 E31.84149
G1 X58.249 Y57.489 E31.86373
G1 X58.376 Y57.665 E31.87456
G1 X58.506 Y58.205 E31.90227
G1 X59.101 Y59.06 E31.95424
G1 X59.37 Y59.18 E31.96894
G1 X59.546 Y59.748 E31.9986
G1 X60.197 Y60.14 E32.03651
G1 X60.526 Y60.441 E32.05876
G1 X61.402 Y61.087 E32.11306
G1 X61.854 Y61.35 E32.13915
G1 X62.321 Y61.645 E32.16671
G1 X63.339 Y62.083 E32.222
G1 X63.902 Y62.257 E32.2514
G1 X64.405 Y62.391 E32.27737
G1 X64.887 Y62.485 E32.30187
G1 X65.466 Y62.634 E32.3317
G1 X66.203 Y62.692 E32.36858
G1 X66.848 Y62.656 E32.40081
G1 X67.339 Y62.64 E32.42532
G1 X67.864 Y62.597 E32.4516
G1 X68.446 Y62.515 E32.48092
G1 X68.944 Y62.401 E32.50641
G1 X69.51 Y62.257 E32.53555
G1 X70.546 Y61.876 E32.59062
G1 X71.033 Y61.609 E32.61833
G1 X71.495 Y61.374 E32.64419
G1 X71.916 Y61.099 E32.66927
G1 X72.401 Y60.807 E32.69752
G1 X73.252 Y60.099 E32.75275
G1 X73.661 Y59.68 E32.78196
G1 X74.01 Y59.302 E32.80763
G1 X74.367 Y58.843 E32.83664
G1 X74.669 Y58.41 E32.86297
G1 X74.93 Y57.987 E32.88777
G1 X75.285 Y57.453 E32.91976
G1 X75.601 Y56.782 E32.95677
G1 X75.77 Y56.182 E32.98786
G1 X75.92 Y55.743 E33.01101
G1 X76.056 Y55.241 E33.03696
G1 X76.188 Y54.653 E33.06702
G1 X76.295 Y53.574 E33.12112
G1 X76.295 Y53.08 E33.14576
G1 X76.315 Y52.507 E33.17437
G1 X76.186 Y51.407 E33.22962
G1 X76.056 Y50.832 E33.25903
G1 X75.921 Y50.328 E33.28507
G1 X75.763 Y49.875 E33.309
G1 X75.602 Y49.292 E33.33918
G1 X75.284 Y48.62 E33.37627
G1 X74.923 Y48.076 E33.40884
G1 X74.669 Y47.664 E33.43299
G1 X74.368 Y47.229 E33.45938
G1 X74.007 Y46.77 E33.48851
G1 X73.662 Y46.395 E33.51393
G1 X73.251 Y45.975 E33.54325
G1 X72.404 Y45.27 E33.59823
G1 X71.93 Y44.981 E33.62593
G1 X71.494 Y44.697 E33.65189
G1 X71.037 Y44.465 E33.67746
G1 X70.547 Y44.196 E33.70534
G1 X69.51 Y43.815 E33.76046
G1 X68.945 Y43.672 E33.78954
G1 X68.447 Y43.556 E33.81505
G1 X67.865 Y43.476 E33.84436
G1 X67.338 Y43.431 E33.87075
G1 X66.851 Y43.418 E33.89505
G1 X66.204 Y43.376 E33.9274
G1 X65.465 Y43.439 E33.9644
G1 X64.861 Y43.593 E33.9955
G1 X64.406 Y43.682 E34.01863
G1 X63.903 Y43.815 E34.04459
G1 X63.325 Y43.995 E34.07479
G1 X62.868 Y44.209 E34.09996
G1 X62.345 Y44.439 E34.12847
G1 X61.91 Y44.691 E34.15355
G1 X61.407 Y44.959 E34.18198
G1 X60.918 Y45.322 E34.21237
G1 X60.511 Y45.642 E34.2382
G1 X60.2 Y45.928 E34.25928
G1 X59.542 Y46.324 E34.29759
G1 X59.368 Y46.892 E34.32723
G1 X59.102 Y47.011 E34.34177
G1 X58.506 Y47.868 E34.39384
G1 X58.377 Y48.406 E34.42145
G1 X58.249 Y48.583 E34.43234
G1 X58.092 Y49.005 E34.45481
G1 X57.846 Y49.269 E34.47281
G1 X57.671 Y49.699 E34.49597
G1 X57.671 Y45.046 E34.72811
G1 X52.691 Y45.046 E34.97656
G0 F3600 X40.671 Y39.026
G1 F1800 X98.691 Y39.026 E37.87119
G1 X98.691 Y67.046 E39.26912
G1 X40.671 Y67.046 E42.16375
G1 X40.671 Y39.026 E43.56167
G0 F3600 X68.862 Y44.013
G0 X89.681 Y48.938
G1 F1800 X89.681 Y55.482 E43.88815
G1 X89.652 Y56.182 E43.9231
G1 X89.8 Y56.544 E43.94262
G1 X89.643 Y56.942 E43.96396
G1 X89.858 Y58.018 E44.0187
G1 X90.118 Y58.183 E44.03407
G1 X90.354 Y58.994 E44.07621
G1 X91.162 Y59.226 E44.11815
G1 X91.332 Y59.49 E44.13381
G1 X92.189 Y59.658 E44.17738
G1 X92.596 Y59.677 E44.19771
G1 X93.099 Y59.676 E44.2228
G1 X93.648 Y59.706 E44.25023
G1 X94.454 Y59.705 E44.29045
G1 X94.827 Y59.548 E44.31064
G1 X95.214 Y59.701 E44.3314
G1 X96.29 Y59.486 E44.38614
G1 X96.455 Y59.226 E44.4015
G1 X97.266 Y58.99 E44.44364
G1 X97.498 Y58.183 E44.48554
G1 X97.761 Y58.013 E44.50116
G1 X97.935 Y57.134 E44.54586
G1 X97.936 Y50.315 E44.88607
G1 X97.943 Y49.837 E44.90992
G1 X97.936 Y48.932 E44.95507
G1 X97.757 Y48.057 E44.99963
G1 X97.499 Y47.891 E45.01493
G1 X97.262 Y47.078 E45.05718
G1 X96.455 Y46.847 E45.09906
G1 X96.285 Y46.583 E45.11472
G1 X95.407 Y46.409 E45.15938
G1 X94.47 Y46.407 E45.20613
G1 X93.737 Y46.432 E45.24272
G1 X92.958 Y46.433 E45.28158
G1 X92.229 Y46.403 E45.31798
G1 X91.327 Y46.587 E45.36391
G1 X91.162 Y46.846 E45.37923
G1 X90.35 Y47.082 E45.42142
G1 X90.119 Y47.889 E45.4633
G1 X89.855 Y48.06 E45.47899
G1 X89.681 Y48.938 E45.52365
G0 F3600 X90.638 Y47.368
G0 X98.51 Y39.679
G1 F1800 X98.037 Y39.206 E45.55702
G0 F3600 X97.471 Y39.206
G1 F1800 X98.51 Y40.244 E45.63029
G0 F3600 X98.51 Y40.81
G1 F1800 X96.906 Y39.206 E45.74346
G0 F3600 X96.34 Y39.206
G1 F1800 X98.51 Y41.376 E45.89657
G0 F3600 X98.51 Y41.942
G1 F1800 X95.774 Y39.206 E46.08961
G0 F3600 X95.209 Y39.206
G1 F1800 X98.51 Y42.507 E46.32251
G0 F3600 X98.51 Y43.073
G1 F1800 X94.643 Y39.206 E46.59535
G0 F3600 X94.077 Y39.206
G1 F1800 X98.51 Y43.639 E46.90812
G0 F3600 X98.51 Y44.204
G1 F1800 X93.512 Y39.206 E47.26075
G0 F3600 X92.946 Y39.206
G1 F1800 X98.51 Y44.77 E47.65332
G0 F3600 X98.51 Y45.336
G1 F1800 X92.38 Y39.206 E48.08583
G0 F3600 X91.814 Y39.206
G1 F1800 X98.51 Y45.901 E48.55823
G0 F3600 X98.51 Y46.467
G1 F1800 X91.249 Y39.206 E49.07054
G0 F3600 X90.683 Y39.206
G1 F1800 X98.51 Y47.033 E49.62277
G0 F3600 X98.51 Y47.598
